!!!SOCIAL_FUNCTION:	songs of games played in a ceremonial manner
!!!PDT:	1932
!!!OTL: No_24_My_Gay_Dress.krn
!!!REG: Wisconsin
!!!LANG: Non-Tone
!!!LING_GROUP: Algonquin
**kern
*staff1
=1-
*clefF4
*k[f#]
*M2/4
4r
8r
16r
16B\
=2!|:
8.B\L
16B\Jk
4B\
=3
8A\L
8G\J
8A\L
8G\J
=4
16E\LK
8E\
16E\Jk
8E\
16r
16B\
=5
8.B\L
16B\Jk
4B\
=6
8A\L
8G\J
8A\L
8G\J
=7||
*M3/4
16E\LK
8E\
16E\Jk
8E\L
8A\J
8A\L
8G\J
=8
16E\LK
8E\
16E\Jk
8E\
8r
8E/L
8BB/J
=9
16E\LK
8E\
16E\Jk
8E\L
8A\J
8A\L
8G\J
=10
16E\LK
8E\
16E\Jk
8E\
8r
8E/L
8BB/J
=11
16E\LK
8E\
16E\Jk
8E\L
8A\J
8A\L
8G\J
=12
16E\LK
8E\
16E\Jk
8E\
8r
8E/L
8BB/J
=13
16E\LK
8E\
16E\Jk
8E\L
8A\J
8A\L
8G\J
=14||
*M2/4
16E\LK
8E\
16E\Jk
8E\
16r
16B\
=15:|!
=
*M2/4
16E\LK
8E\
16E\Jk
8E\
8r
==
*-
